X:39
T:Spanish Ladies
R:
M:3/4
K:G
D2 | G2 G2 D2 | G4 AB | c2 A2 G2 | FE D2 D2 |
A2 A2 D2 | A4 AB | c2 B2 A2 | d4 d2 | d2 B2 d2 |
c2 A2 c2 | B2 G2 B2 | A2 D2 D2 | GG G4 |
A4 Bc | B2 G2 A2 | G4 ||
